storage/app/icons/phosphoricons/light/dots-six-vertical-light.svg

<svg xmlns="http://www.w3.org/2000/svg" fill="currentColor" viewBox="0 0 256 256"><path d="M102 60a10 10 0 1 1-10-10 10 10 0 0 1 10 10m62 10a10 10 0 1 0-10-10 10 10 0 0 0 10 10m-72 48a10 10 0 1 0 10 10 10 10 0 0 0-10-10m72 0a10 10 0 1 0 10 10 10 10 0 0 0-10-10m-72 68a10 10 0 1 0 10 10 10 10 0 0 0-10-10m72 0a10 10 0 1 0 10 10 10 10 0 0 0-10-10"/></svg>

<svg xmlns="http://www.w3.org/2000/svg" viewBox="0 0 256 256" fill="currentColor"><path d="M102,60A10,10,0,1,1,92,50,10,10,0,0,1,102,60Zm62,10a10,10,0,1,0-10-10A10,10,0,0,0,164,70ZM92,118a10,10,0,1,0,10,10A10,10,0,0,0,92,118Zm72,0a10,10,0,1,0,10,10A10,10,0,0,0,164,118ZM92,186a10,10,0,1,0,10,10A10,10,0,0,0,92,186Zm72,0a10,10,0,1,0,10,10A10,10,0,0,0,164,186Z"/></svg>
